X:418
T:Mary O'Sullivan
N:"Moderate" "collected by F.O'Neill"
N:Irish title: maire ni suillea.bai.n
B:O'Neill's 418
Z:Transcribed by henrik.norbeck@mailbox.swipnet.se
M:C
L:1/8
K:G
G|G2 GA c2 dc|A2 DE GF2 D2|G2 AB c2 dc|A2 GA G3 D|
G2 GA c2 dc|A2 AG GF2 D2|G2 AB cAdc|A2 GA G3||
B|d2 ef g2 fg|a2 bg e2 dB|d2 ef g2 fg|a2 bg g3 B|
d2 ef g2 fg|a2 ba gfed|gefd e2 dB|A2 GA G3||
